X: 7
T: Gloria laus et honor
N: Derived from Bru2012-Gloria_laus_et_honor.krn
C: Antoine Brumel
%%abc-version 2.0
%%abcx-abcm2ps-target-version 5.9.1 (29 Sep 2008)
%%abc-creator hum2abc beta
%%abcx-conversion-date 2019/02/16 20:23:57
%%abc-edited-by Jesse Rodin
%%abc-edited-by Megan K. Eagen 25/08/2012
%%abcx-initial-encoding-date 2014/02/22/
%%humdrum-veritas 3055476867
%%humdrum-veritas-data 1203623160
%%linebreak <none>
%%barnumbers 0
L: 1/4
M: 2/1
Q: 1/2=120
%%staves [1 2 3 4]
V: 1 clef=treble
V: 2 clef=treble-8
V: 3 clef=treble-8
V: 4 clef=bass
K: C
[V:1] z8 | 
[V:2] z8 | 
[V:3] D8 | 
[V:4] z8 | 
[V:1] z8 | 
[V:2] z8 | 
[V:3] A8 | 
[V:4] z8 | 
[V:1] D8 | 
[V:2] z8 | 
[V:3] B8 | 
[V:4] z8 | 
[V:1] A8 | 
[V:2] z8 | 
[V:3] A4A4- | 
[V:4] A,,8 | 
[V:1] B8 | 
[V:2] z8 | 
[V:3] A2GFG4 | 
[V:4] E,8 | 
[V:1] A4A4- | 
[V:2] A8 | 
[V:3] z4A4 | 
[V:4] F,8 | 
[V:1] A2GFG4 | 
[V:2] e8 | 
[V:3] B4G4 | 
[V:4] E,4E,4- | 
[V:1] A4A2B2- | 
[V:2] f8 | 
[V:3] d8 | 
[V:4] E,2D,C,D,4 | 
[V:1] B2AGG4 | 
[V:2] e4e4- | 
[V:3] B4c4- | 
[V:4] E,8 | 
[V:1] z2c3BA2 | 
[V:2] e2dcd4 | 
[V:3] c4A4 | 
[V:4] F,8 | 
[V:1] G2A4^G2 | 
[V:2] e8 | 
[V:3] B8 | 
[V:4] E,8 | 
[V:1] A4z2A2- | 
[V:2] z2e4fe | 
[V:3] A8 | 
[V:4] A,,8 | 
[V:1] AGFEF4 | 
[V:2] fedcB3c | 
[V:3] z8 | 
[V:4] D,8 | 
[V:1] E8 | 
[V:2] c4z2c2 | 
[V:3] G8 | 
[V:4] C,8 | 
[V:1] z4F4 | 
[V:2] B2A4d2- | 
[V:3] F8 | 
[V:4] D,8 | 
[V:1] E2G4FE | 
[V:2] d2cBc3d | 
[V:3] G8 | 
[V:4] E,8 | 
[V:1] F2A3GF2 | 
[V:2] d6cB | 
[V:3] A8 | 
[V:4] D,8 | 
[V:1] E2G3FED | 
[V:2] B4z2E2- | 
[V:3] G8 | 
[V:4] E,8 | 
[V:1] C4z2C2 | 
[V:2] E2F2E2F2- | 
[V:3] A8 | 
[V:4] A,,8 | 
[V:1] D3EF2ED | 
[V:2] F2G2F2G2 | 
[V:3] D8 | 
[V:4] B,,8 | 
[V:1] C2D4^C2 | 
[V:2] A3_BA4 | 
[V:3] E8 | 
[V:4] A,,8 | 
[V:1] D8 | 
[V:2] z2F3GA2 | 
[V:3] D8 | 
[V:4] z8 | 
[V:1] z4D4 | 
[V:2] _B2A4_BA | 
[V:3] z8 | 
[V:4] D,4D,4 | 
[V:1] D3E/F/G4 | 
[V:2] _B3G_B4 | 
[V:3] G4G4 | 
[V:4] G,,8 | 
[V:1] E3F/G/A4 | 
[V:2] A4c4 | 
[V:3] C8 | 
[V:4] A,,8 | 
[V:1] F3G/A/_B4 | 
[V:2] z2_B3cd2 | 
[V:3] D8 | 
[V:4] _B,,8 | 
[V:1] G3A/B/c4 | 
[V:2] c4e4 | 
[V:3] E8 | 
[V:4] C,8 | 
[V:1] B2A3GF2- | 
[V:2] d3cA2B2 | 
[V:3] F8 | 
[V:4] D,8 | 
[V:1] F2EDE4 | 
[V:2] c8 | 
[V:3] G8 | 
[V:4] C,8 | 
[V:1] F3GA2F2- | 
[V:2] A3Bc2d2- | 
[V:3] F8- | 
[V:4] D,4z2D,2- | 
[V:1] F2EDC4 | 
[V:2] d2cBA3_B | 
[V:3] F8- | 
[V:4] D,2E,2F,4 | 
[V:1] D8 | 
[V:2] _B8 | 
[V:3] F8 | 
[V:4] _B,,8 | 
[V:1] z8 | 
[V:2] A4A2F2- | 
[V:3] F8- | 
[V:4] D,4D,2D,2- | 
[V:1] z8 | 
[V:2] FEDCD4 | 
[V:3] F8 | 
[V:4] D,C,B,,A,,B,,4 | 
[V:1] A4A2A2- | 
[V:2] E4z2e2 | 
[V:3] A8- | 
[V:4] A,,8 | 
[V:1] AGFEF4 | 
[V:2] f2d4cB | 
[V:3] A8 | 
[V:4] D,8 | 
[V:1] E8 | 
[V:2] c4z4 | 
[V:3] A8- | 
[V:4] A,,8 | 
[V:1] F4F2F2- | 
[V:2] A4A2A2- | 
[V:3] A8 | 
[V:4] D,8- | 
[V:1] FEDCD4 | 
[V:2] AGFEF4 | 
[V:3] A8 | 
[V:4] D,8 | 
[V:1] C4z2F2- | 
[V:2] E4z2c2- | 
[V:3] A8 | 
[V:4] A,,8 | 
[V:1] F2EDE4 | 
[V:2] c2BAc4 | 
[V:3] G8 | 
[V:4] C,8 | 
[V:1] D2F4G2 | 
[V:2] A4B4 | 
[V:3] F8 | 
[V:4] D,8 | 
[V:1] E4z4 | 
[V:2] c4d2e2- | 
[V:3] G8 | 
[V:4] C,4z2G,2- | 
[V:1] G6FE | 
[V:2] edcBc4 | 
[V:3] G8 | 
[V:4] G,F,E,D,E,4 | 
[V:1] F6E2 | 
[V:2] d6cB | 
[V:3] A6G2 | 
[V:4] D,8 | 
[V:1] D4C4 | 
[V:2] A8- | 
[V:3] F4E4 | 
[V:4] D,4A,,4 | 
[V:1] D6E2 | 
[V:2] A4B4 | 
[V:3] F4G4 | 
[V:4] D,4G,,4 | 
[V:1] C4C2D2- | 
[V:2] A8 | 
[V:3] z2E4F2- | 
[V:4] A,,4A,,2D,2- | 
[V:1] D2E4F2- | 
[V:2] B2c3BA2- | 
[V:3] F2G4F2 | 
[V:4] D,2C,4D,2- | 
[V:1] FED4^C2 | 
[V:2] AGGFA4 | 
[V:3] D4E4 | 
[V:4] D,2_B,,2A,,4 | 
[V:1] D8 | 
[V:2] F3EDC_B,2 | 
[V:3] D6F2- | 
[V:4] z2F,3E,D,C, | 
[V:1] z8 | 
[V:2] z2_B4A2 | 
[V:3] F2EDE4 | 
[V:4] _B,,2D,2C,4 | 
[V:1] D8- | 
[V:2] _B8 | 
[V:3] F4z4 | 
[V:4] _B,,8 | 
[V:1] D8 | 
[V:2] A8- | 
[V:3] F8 | 
[V:4] D,8 | 
[V:1] D8 | 
[V:2] A8- | 
[V:3] F8 | 
[V:4] D,8 | 
[V:1] C8 | 
[V:2] A8 | 
[V:3] E8 | 
[V:4] A,,8 | 
[V:1] D8- | 
[V:2] A4A2_B2- | 
[V:3] F3EFGF2- | 
[V:4] D,8 | 
[V:1] D8 | 
[V:2] BAGFG4 | 
[V:3] FEDCD4 | 
[V:4] _B,,8 | 
[V:1] C8- | 
[V:2] A4z2A2 | 
[V:3] E3FG2A2- | 
[V:4] A,,8- | 
[V:1] C8 | 
[V:2] c2d2e4 | 
[V:3] A2GFE4 | 
[V:4] A,,8 | 
[V:1] D8 | 
[V:2] d2f4ed | 
[V:3] F4G2A2- | 
[V:4] D,8 | 
[V:1] E8 | 
[V:2] (3:2:4^c4d2^c4B2 | 
[V:3] A2GFA3G | 
[V:4] A,,8 | 
[V:1] F8 | 
[V:2] d6cB | 
[V:3] A8 | 
[V:4] D,8 | 
[V:1] F4E4- | 
[V:2] A4c4- | 
[V:3] F4G4- | 
[V:4] D,4C,4- | 
[V:1] E2D2D4- | 
[V:2] c2B2A2G2 | 
[V:3] G4F4 | 
[V:4] C,4D,4 | 
[V:1] D2^CB,C4 | 
[V:2] A8 | 
[V:3] E8 | 
[V:4] A,,8 | 
[V:1] D8- | 
[V:2] _B8 | 
[V:3] D8- | 
[V:4] D,8- | 
[V:1] D8 ||  
[V:2] A8 ||  
[V:3] D8 ||  
[V:4] D,8 ||  
[V:1]  [K:C] [K:clef=treble][M:2/1]A8- | 
[V:2]  [K:C] [K:clef=treble-8][M:2/1]z8 | 
[V:3]  [K:C] [K:clef=treble-8][M:2/1]z8 | 
[V:4]  [K:C] [K:clef=bass][M:2/1]A,6F,2- | 
[V:1] A8- | 
[V:2] z4z4 | 
[V:3] A6F2- | 
[V:4] F,2E,D,C,2D,2- | 
[V:1] A8- | 
[V:2] A6F2- | 
[V:3] F2EDC2D2- | 
[V:4] D,2C,B,,A,,2D,2- | 
[V:1] A8- | 
[V:2] F2EDC2D2- | 
[V:3] D2CB,A,2z2 | 
[V:4] D,2D,2E,2F,2- | 
[V:1] A8- | 
[V:2] DEFGA3B | 
[V:3] D3EFGAF | 
[V:4] F,G,A,2D,2F,2- | 
[V:1] A8 | 
[V:2] cde2f4 | 
[V:3] f2e2d3c | 
[V:4] F,E,C,2D,4 | 
[V:1] G8- | 
[V:2] e8- | 
[V:3] B6c2- | 
[V:4] E,8- | 
[V:1] G8- | 
[V:2] e8- | 
[V:3] cBcdB2c2- | 
[V:4] E,8- | 
[V:1] G8 | 
[V:2] e8 | 
[V:3] c2BAB4 | 
[V:4] E,8 | 
[V:1] A8- | 
[V:2] c8 | 
[V:3] A6B2 | 
[V:4] F,4z2F,2- | 
[V:1] A8 | 
[V:2] f8 | 
[V:3] c4d4 | 
[V:4] F,2E,2D,4 | 
[V:1] c8 | 
[V:2] e3dcBc2- | 
[V:3] G3FEDE2- | 
[V:4] C,4z2C,2- | 
[V:1] c8 | 
[V:2] cBAG^F3E | 
[V:3] EDCB,C4 | 
[V:4] C,2B,,2A,,4 | 
[V:1] B4A4- | 
[V:2] G4d4- | 
[V:3] D6E2 | 
[V:4] G,,4z4 | 
[V:1] A2G2G4- | 
[V:2] d2B2c4 | 
[V:3] F4G4 | 
[V:4] D,4E,4 | 
[V:1] G4^F4 | 
[V:2] d8 | 
[V:3] A8 | 
[V:4] D,8 | 
[V:1] G8- | 
[V:2] B3cd2e2- | 
[V:3] G8 | 
[V:4] G,,3A,,B,,2C,2- | 
[V:1] G8 | 
[V:2] efg3fe2 | 
[V:3] z4G4 | 
[V:4] C,D,E,3F,G,2 | 
[V:1] z8 | 
[V:2] d2g4^f2 | 
[V:3] A2B2c4 | 
[V:4] F,2G,2A,4 | 
[V:1] G8- | 
[V:2] (3:2:2g8d4- | 
[V:3] d6B2- | 
[V:4] G,8- | 
[V:1] G8 | 
[V:2] (3:2:2d4e8 | 
[V:3] B2AGB4 | 
[V:4] G,8 | 
[V:1] A8- | 
[V:2] f4z2f2- | 
[V:3] c6A2- | 
[V:4] F,8- | 
[V:1] A8 | 
[V:2] f2edf4 | 
[V:3] A2GFA4 | 
[V:4] F,8 | 
[V:1] c8 | 
[V:2] e4z2e2- | 
[V:3] G8- | 
[V:4] C,8- | 
[V:1] c8 | 
[V:2] e2dce4 | 
[V:3] G8 | 
[V:4] C,8 | 
[V:1] B8 | 
[V:2] d6cB | 
[V:3] G4G4 | 
[V:4] G,,4G,4 | 
[V:1] c8- | 
[V:2] f4z4 | 
[V:3] A4B2c2- | 
[V:4] F,4G,2A,2- | 
[V:1] c8 | 
[V:2] e6fe | 
[V:3] c2BAG4 | 
[V:4] A,2G,F,E,4 | 
[V:1] d8- | 
[V:2] f6g2- | 
[V:3] A8- | 
[V:4] D,8- | 
[V:1] d8- | 
[V:2] g2^fe^f4 | 
[V:3] A8 | 
[V:4] D,8 | 
[V:1] d8 | 
[V:2] g8 | 
[V:3] B8 | 
[V:4] G,,8 | 
[V:1] c8 | 
[V:2] e6dc | 
[V:3] A8 | 
[V:4] A,,8 | 
[V:1] B8 | 
[V:2] d4e4 | 
[V:3] G8 | 
[V:4] z4E,4 | 
[V:1] A8 | 
[V:2] c4d4 | 
[V:3] z4A4 | 
[V:4] F,8 | 
[V:1] G8- | 
[V:2] e8- | 
[V:3] B8- | 
[V:4] E,8- | 
[V:1] G8 | 
[V:2] e8 | 
[V:3] B8 | 
[V:4] E,8 | 
[V:1] A8 | 
[V:2] c4z2c2 | 
[V:3] A8 | 
[V:4] F,8 | 
[V:1] A8- | 
[V:2] d2f4ed | 
[V:3] z4d4 | 
[V:4] D,8 | 
[V:1] A8 ||  
[V:2] e8 ||  
[V:3] c8 ||  
[V:4] A,,8 ||  
[V:1]  [K:C] [K:clef=treble][M:2/1]A8- | 
[V:2]  [K:C] [K:clef=treble-8][M:2/1]A3Bc2d2 | 
[V:3]  [K:C] [K:clef=treble-8][M:2/1]z8 | 
[V:4]  [K:C] [K:clef=bass][M:2/1]z4A,,3B,, | 
[V:1] A8- | 
[V:2] A2d2e2f2- | 
[V:3] A3Bc2d2 | 
[V:4] C,2D,2A,,2D,2- | 
[V:1] A8- | 
[V:2] fed2c2d2 | 
[V:3] A2d3ef2- | 
[V:4] D,E,F,3E,D,2 | 
[V:1] A8 | 
[V:2] A2d2e2f2- | 
[V:3] fed2c2d2- | 
[V:4] C,2D,2A,,2D,2- | 
[V:1] A8 | 
[V:2] f2e3ddc | 
[V:3] d2cBA4 | 
[V:4] D,2E,2F,4 | 
[V:1] G8- | 
[V:2] e8- | 
[V:3] B4c4 | 
[V:4] E,8- | 
[V:1] G8 | 
[V:2] e8 | 
[V:3] B3AB4 | 
[V:4] E,8 | 
[V:1] A8 | 
[V:2] c4f4 | 
[V:3] A3Bc2d2 | 
[V:4] F,6E,D, | 
[V:1] c8 | 
[V:2] g4z2g2- | 
[V:3] e6dc | 
[V:4] C,8- | 
[V:1] c6BA | 
[V:2] g2feg4- | 
[V:3] e8 | 
[V:4] C,8 | 
[V:1] c4B2A2- | 
[V:2] g2fef2d2- | 
[V:3] e4d3c | 
[V:4] C,4D,4 | 
[V:1] AGG4^F2 | 
[V:2] d2c2d4 | 
[V:3] BAG2A4 | 
[V:4] E,4D,4 | 
[V:1] G8- | 
[V:2] z2d4e2- | 
[V:3] G8- | 
[V:4] G,,4G,,2C,2- | 
[V:1] G8 | 
[V:2] edB2c2d2 | 
[V:3] G8 | 
[V:4] C,D,E,2C,2G,2- | 
[V:1] z8 | 
[V:2] G3ABcd2- | 
[V:3] z8 | 
[V:4] G,A,B,2G,2B,2- | 
[V:1] G8 | 
[V:2] d2B3cde | 
[V:3] z4d4 | 
[V:4] B,A,G,F,G,4 | 
[V:1] A8- | 
[V:2] f8- | 
[V:3] d8- | 
[V:4] D,8- | 
[V:1] A8 | 
[V:2] f8 | 
[V:3] d8 | 
[V:4] D,8 | 
[V:1] c8- | 
[V:2] e8 | 
[V:3] c4A4- | 
[V:4] A,,8- | 
[V:1] c4B4 | 
[V:2] f4g4 | 
[V:3] A4B4 | 
[V:4] A,,4G,,4 | 
[V:1] c8 | 
[V:2] e8 | 
[V:3] A8 | 
[V:4] A,,8 | 
[V:1] d8- | 
[V:2] d3cBAB2- | 
[V:3] F4z2F2- | 
[V:4] _B,,4G,,2D,2- | 
[V:1] d8 | 
[V:2] BAA4^G2 | 
[V:3] F2E2D4 | 
[V:4] D,2C,2B,,4 | 
[V:1] c8- | 
[V:2] A3Bc2A2- | 
[V:3] E4z2E2- | 
[V:4] A,,4F,,2C,2- | 
[V:1] c8 | 
[V:2] AGG4^F2 | 
[V:3] E2D2C4 | 
[V:4] C,2B,,2A,,4 | 
[V:1] B8- | 
[V:2] G2d2e2g2- | 
[V:3] D4z2d2- | 
[V:4] G,,4G,2B,2- | 
[V:1] B8 | 
[V:2] gff4e2 | 
[V:3] d2c2B4 | 
[V:4] B,2A,2G,4 | 
[V:1] A8- | 
[V:2] f3ga2f2- | 
[V:3] c4z2c2- | 
[V:4] F,4D,2A,2- | 
[V:1] A8 | 
[V:2] fee4d2 | 
[V:3] c2B2A4 | 
[V:4] A,2G,2F,4 | 
[V:1] G8- | 
[V:2] e8- | 
[V:3] B8 | 
[V:4] E,8 | 
[V:1] G8- | 
[V:2] e8 | 
[V:3] c8 | 
[V:4] C,6D,2 | 
[V:1] G8- | 
[V:2] e3fg2e2- | 
[V:3] B4e3f | 
[V:4] E,8- | 
[V:1] G8- | 
[V:2] edc2B2e2- | 
[V:3] g2e3dc2 | 
[V:4] E,8- | 
[V:1] G8- | 
[V:2] edc2B2e2- | 
[V:3] B2e3dc2 | 
[V:4] E,8- | 
[V:1] G8 | 
[V:2] e2d2e4 | 
[V:3] B2A2B4 | 
[V:4] E,8 | 
[V:1] A8- | 
[V:2] c4d2e2- | 
[V:3] A8 | 
[V:4] A,,8- | 
[V:1] A8- | 
[V:2] edcBc4 | 
[V:3] z4E4 | 
[V:4] A,,8 | 
[V:1] A8- | 
[V:2] d4e2f2- | 
[V:3] F4G2A2- | 
[V:4] D,8- | 
[V:1] A8 | 
[V:2] fedcd4 | 
[V:3] AGFEF4 | 
[V:4] D,8 | 
[V:1] A8 ||  
[V:2] c8 ||  
[V:3] E8 ||  
[V:4] A,,8 ||  
[V:1]  [K:C] [K:clef=treble][M:2/1]z8 | 
[V:2]  [K:C] [K:clef=treble-8][M:2/1]z4A4- | 
[V:3]  [K:C] [K:clef=treble-8][M:2/1]A8- | 
[V:4]  [K:C] [K:clef=bass][M:2/1]A,6C2- | 
[V:1] z8 | 
[V:2] A2c3BAG | 
[V:3] A8 | 
[V:4] CB,A,G,F,2A,2- | 
[V:1] z8 | 
[V:2] F2A3GFE | 
[V:3] A8- | 
[V:4] A,G,F,E,D,2F,2- | 
[V:1] z8 | 
[V:2] D2F3EDC | 
[V:3] A8- | 
[V:4] F,E,D,C,F,4 | 
[V:1] z8 | 
[V:2] F3GABc2- | 
[V:3] A8 | 
[V:4] z2F,,3G,,A,,B,, | 
[V:1] z8 | 
[V:2] c2C2D2E2- | 
[V:3] G8- | 
[V:4] C,3D,B,,2C,2- | 
[V:1] z8 | 
[V:2] E2DCD4 | 
[V:3] G8 | 
[V:4] C,2B,,A,,B,,4 | 
[V:1] z8 | 
[V:2] E4z4 | 
[V:3] A8 | 
[V:4] A,,4D,4- | 
[V:1] z8 | 
[V:2] z8 | 
[V:3] A6B2 | 
[V:4] D,2E,2F,4- | 
[V:1] z8 | 
[V:2] z8 | 
[V:3] c6BA | 
[V:4] F,2E,D,C,4 | 
[V:1] z8 | 
[V:2] z8 | 
[V:3] G4z2G2- | 
[V:4] z2C,3D,E,F, | 
[V:1] z8 | 
[V:2] z8 | 
[V:3] GABcd4 | 
[V:4] G,4z2D,2- | 
[V:1] z8 | 
[V:2] z8 | 
[V:3] z2A3Bc2- | 
[V:4] D,E,F,3E,C,2- | 
[V:1] z8 | 
[V:2] z8 | 
[V:3] cBG2B2A2- | 
[V:4] C,D,E,2D,2C,2 | 
[V:1] z8 | 
[V:2] z8 | 
[V:3] AGFED2G2- | 
[V:4] D,3C,B,,A,,G,,2 | 
[V:1] z8 | 
[V:2] z4C4 | 
[V:3] G2^FE^F4 | 
[V:4] B,,2C,2A,,4 | 
[V:1] z8 | 
[V:2] D2E2D2G2- | 
[V:3] G8 | 
[V:4] G,,8 | 
[V:1] z8 | 
[V:2] GABcd2B2- | 
[V:3] z8 | 
[V:4] G,,3A,,B,,C,D,2- | 
[V:1] z8 | 
[V:2] BAA2z2D2 | 
[V:3] z4G4 | 
[V:4] D,A,,C,2B,,4 | 
[V:1] z8 | 
[V:2] E2F2E4 | 
[V:3] A8- | 
[V:4] A,,8 | 
[V:1] z8 | 
[V:2] z4A3B | 
[V:3] A8- | 
[V:4] z2A,,3B,,C,D, | 
[V:1] z8 | 
[V:2] cdA2D3E | 
[V:3] A8- | 
[V:4] A,,2D,3E,F,G, | 
[V:1] z8 | 
[V:2] FGD2F3G | 
[V:3] A8 | 
[V:4] D,2F,3G,A,_B, | 
[V:1] z8 | 
[V:2] A_BF2A3=B | 
[V:3] A8- | 
[V:4] F,2A,3B,CD | 
[V:1] z8 | 
[V:2] cdA2c4 | 
[V:3] A8- | 
[V:4] A,2C4F,2- | 
[V:1] z8 | 
[V:2] F3GA4 | 
[V:3] A8- | 
[V:4] F,G,A,4D,2- | 
[V:1] z8 | 
[V:2] D3EF2GF | 
[V:3] A8 | 
[V:4] D,E,F,4E,D, | 
[V:1] z8 | 
[V:2] EDG4^F2 | 
[V:3] c8 | 
[V:4] C,B,,A,,G,,A,,4 | 
[V:1] z8 | 
[V:2] G4z2A2- | 
[V:3] B6d2- | 
[V:4] G,,4G,2F,2 | 
[V:1] z8 | 
[V:2] A2GFG4 | 
[V:3] d2^cB^c4 | 
[V:4] D,2F,2E,4 | 
[V:1] z8 | 
[V:2] A4z2G2 | 
[V:3] d4c2B2- | 
[V:4] D,4E,4 | 
[V:1] z8 | 
[V:2] E2F2D4 | 
[V:3] BAA4^G2 | 
[V:4] C,2D,2B,,4 | 
[V:1] z8 | 
[V:2] E2F2G2E2 | 
[V:3] A2B2c2A2 | 
[V:4] A,,2D,2E,2C,2 | 
[V:1] z8 | 
[V:2] F2D2E2F2 | 
[V:3] B2G2A2B2 | 
[V:4] D,2B,,2A,,2D,2 | 
[V:1] z8 | 
[V:2] G2A2F2G2 | 
[V:3] c2d2B2c2 | 
[V:4] E,2F,2D,2E,2 | 
[V:1] z8 | 
[V:2] E2F2D2E2 | 
[V:3] A2B2G2A2 | 
[V:4] C,2D,2B,,2A,,2 | 
[V:1] z8 | 
[V:2] F2G2A2B2 | 
[V:3] B2c2d2e2 | 
[V:4] D,2E,2F,2G,2 | 
[V:1] z8 | 
[V:2] G2A2F2G2 | 
[V:3] c2d2B2c2 | 
[V:4] E,2F,2D,2E,2 | 
[V:1] z8 | 
[V:2] E2F2D2E2 | 
[V:3] A2B2G2A2 | 
[V:4] C,2D,2B,,2C,2 | 
[V:1] z8 | 
[V:2] F2G3FE2 | 
[V:3] B2c3BA2 | 
[V:4] D,2E,3D,C,2 | 
[V:1] z8 | 
[V:2] D2E3DDC | 
[V:3] G2A3^G^G^F | 
[V:4] B,,2A,,2B,,4 | 
[V:1] z8 ||  
[V:2] E8 ||  
[V:3] A8 ||  
[V:4] A,,8 ||  
[V:1]  [K:C] [K:clef=treble][M:2/1]A8- | 
[V:2]  [K:C] [K:clef=treble-8][M:2/1]E8 | 
[V:3]  [K:C] [K:clef=treble-8][M:2/1]A8- | 
[V:4]  [K:C] [K:clef=bass][M:2/1]A,,8 | 
[V:1] A8 | 
[V:2] E4F4 | 
[V:3] A8 | 
[V:4] C,4D,4 | 
[V:1] d8 | 
[V:2] D8 | 
[V:3] G8 | 
[V:4] B,,8 | 
[V:1] c8 | 
[V:2] E8 | 
[V:3] A8- | 
[V:4] A,,8- | 
[V:1] c4A4- | 
[V:2] E4F4- | 
[V:3] A4A4- | 
[V:4] A,,4D,4- | 
[V:1] A2G2F4 | 
[V:2] F2E2F4 | 
[V:3] A4B4 | 
[V:4] D,8 | 
[V:1] E6F2 | 
[V:2] G8 | 
[V:3] c8- | 
[V:4] C,8- | 
[V:1] G4A4- | 
[V:2] G4F4 | 
[V:3] c8- | 
[V:4] C,4F,4- | 
[V:1] A4A4 | 
[V:2] f6e2 | 
[V:3] c8 | 
[V:4] F,8 | 
[V:1] G4A4- | 
[V:2] d4f4- | 
[V:3] B4c4 | 
[V:4] G,4F,4 | 
[V:1] A2G2G4 | 
[V:2] f2e2c4 | 
[V:3] d4G4 | 
[V:4] D,4E,4 | 
[V:1] F6G2 | 
[V:2] d8 | 
[V:3] A6B2 | 
[V:4] D,8 | 
[V:1] E4A4- | 
[V:2] e4f4 | 
[V:3] c4d4 | 
[V:4] z4D,4 | 
[V:1] A2G2G4- | 
[V:2] g4c4 | 
[V:3] G8 | 
[V:4] E,8 | 
[V:1] G4^F4 | 
[V:2] d8 | 
[V:3] A8 | 
[V:4] D,8 | 
[V:1] G8 | 
[V:2] B8 | 
[V:3] G8 | 
[V:4] E,8 | 
[V:1] z8 | 
[V:2] e6dc | 
[V:3] c8 | 
[V:4] C,6B,,A,, | 
[V:1] G8 | 
[V:2] d6e2 | 
[V:3] B4d4- | 
[V:4] G,,8 | 
[V:1] A8 | 
[V:2] f8 | 
[V:3] d2c2d4 | 
[V:4] D,8 | 
[V:1] c8 | 
[V:2] e8 | 
[V:3] G8 | 
[V:4] C,8 | 
[V:1] B8 | 
[V:2] d6ed | 
[V:3] G4B4 | 
[V:4] G,,4G,4 | 
[V:1] c8 | 
[V:2] f3eg4- | 
[V:3] A4G4 | 
[V:4] F,4E,4 | 
[V:1] d8- | 
[V:2] g2^fe^f4 | 
[V:3] A8 | 
[V:4] D,8 | 
[V:1] d8- | 
[V:2] g3fd4 | 
[V:3] G6_B2- | 
[V:4] G,,4z2G,,2- | 
[V:1] d8 | 
[V:2] z2D3EF2- | 
[V:3] Bcdef4 | 
[V:4] G,,A,,_B,,3C,D,E, | 
[V:1] c8- | 
[V:2] FGABc4 | 
[V:3] z2F3GAB | 
[V:4] F,4z2F,2- | 
[V:1] c8 | 
[V:2] z2c3def | 
[V:3] c4z2c2 | 
[V:4] F,G,A,B,C4 | 
[V:1] B8 | 
[V:2] g4d4- | 
[V:3] dcBAG4 | 
[V:4] G,6F,G, | 
[V:1] A8- | 
[V:2] d2cdA4 | 
[V:3] F2D3EFG | 
[V:4] D,4z2D,2- | 
[V:1] A8 | 
[V:2] z2A3Bcd | 
[V:3] A4z4 | 
[V:4] D,E,F,G,A,4 | 
[V:1] G8- | 
[V:2] e4B4 | 
[V:3] z2E3FGA | 
[V:4] E,4z2E,2- | 
[V:1] G8 | 
[V:2] z2E3FGA | 
[V:3] B4E4 | 
[V:4] E,F,G,A,B,4 | 
[V:1] G8- | 
[V:2] B4E2G2- | 
[V:3] z2G3ABc | 
[V:4] E,8- | 
[V:1] G8 | 
[V:2] GABcB2G2 | 
[V:3] B2G2E2e2- | 
[V:4] E,8- | 
[V:1] G8- | 
[V:2] E2e3fg2 | 
[V:3] efg2e3f | 
[V:4] E,8- | 
[V:1] G8 | 
[V:2] e3fg2e2- | 
[V:3] g2e3fg2 | 
[V:4] E,8- | 
[V:1] G8- | 
[V:2] efg2e3f | 
[V:3] e3dcBc2- | 
[V:4] E,8- | 
[V:1] G8 | 
[V:2] g2e3de2 | 
[V:3] c2BAB4 | 
[V:4] E,8 | 
[V:1] A8- | 
[V:2] c3de2A2- | 
[V:3] c8- | 
[V:4] A,,8- | 
[V:1] A8 | 
[V:2] AGFEF3G | 
[V:3] c8- | 
[V:4] A,,8- | 
[V:1] A8- | 
[V:2] E2F4EF | 
[V:3] c8- | 
[V:4] A,,8- | 
[V:1] A8 | 
[V:2] E8- | 
[V:3] c8- | 
[V:4] A,,8- | 
[V:1] A8 ||  
[V:2] E8 ||  
[V:3] c8 ||  
[V:4] A,,8 ||  
[V:1]  [K:C] [K:clef=treble][M:2/1]z4A4- | 
[V:2]  [K:C] [K:clef=treble-8][M:2/1]z8 | 
[V:3]  [K:C] [K:clef=treble-8][M:2/1]A6c2- | 
[V:4]  [K:C] [K:clef=bass][M:2/1]A,,8- | 
[V:1] A2c4A2- | 
[V:2] z4z4 | 
[V:3] c2A3Bc2- | 
[V:4] A,,8- | 
[V:1] ABc3BA2- | 
[V:2] A6c2- | 
[V:3] cBA4GF | 
[V:4] A,,8- | 
[V:1] A2GFE4 | 
[V:2] c2A3Bc2- | 
[V:3] E4z4 | 
[V:4] A,,8- | 
[V:1] z2A3Bc2- | 
[V:2] cBA4GF | 
[V:3] z4A4 | 
[V:4] A,,8- | 
[V:1] c2BAc4 | 
[V:2] E4C4 | 
[V:3] A4A4 | 
[V:4] A,,8 | 
[V:1] z2B3cd2- | 
[V:2] G4D4 | 
[V:3] B4G4 | 
[V:4] G,,8- | 
[V:1] d2cBd4 | 
[V:2] G6FE | 
[V:3] B8 | 
[V:4] G,,8 | 
[V:1] c8 | 
[V:2] E8 | 
[V:3] A3GE2F2- | 
[V:4] A,,8 | 
[V:1] z2A4GF | 
[V:2] A6B2 | 
[V:3] F2EDE4 | 
[V:4] A,,8- | 
[V:1] E8 | 
[V:2] c8 | 
[V:3] A8 | 
[V:4] A,,8 | 
[V:1] E4z4 | 
[V:2] c3defe2- | 
[V:3] G4c3d | 
[V:4] C,8- | 
[V:1] C3DEFE2- | 
[V:2] edcBc2g2- | 
[V:3] efe3dcB | 
[V:4] C,8- | 
[V:1] EDCB,C2G2- | 
[V:2] gfedc2e2- | 
[V:3] c2g3fed | 
[V:4] C,8 | 
[V:1] GFEDC2E2- | 
[V:2] edcBA2G2 | 
[V:3] c2e3dcB | 
[V:4] C,8- | 
[V:1] EFG2E4 | 
[V:2] z2c2G2c2- | 
[V:3] A2G2z2c2 | 
[V:4] C,8- | 
[V:1] z2E4G2- | 
[V:2] cBG4FE | 
[V:3] G2c3BG2- | 
[V:4] C,8 | 
[V:1] G2A2B4 | 
[V:2] D4G4 | 
[V:3] G2FED4 | 
[V:4] B,,8 | 
[V:1] c4B4 | 
[V:2] A4z2D2- | 
[V:3] E2F2G4- | 
[V:4] A,,4G,,4 | 
[V:1] A2c4BA | 
[V:2] D2CDC4 | 
[V:3] G2FGF3G | 
[V:4] A,,8 | 
[V:1] B4A4- | 
[V:2] D4z4 | 
[V:3] G4F4 | 
[V:4] G,,4A,,4 | 
[V:1] A2GAG4- | 
[V:2] d8- | 
[V:3] G8 | 
[V:4] B,,4G,,4 | 
[V:1] G2^FGF3G | 
[V:2] d8 | 
[V:3] A8 | 
[V:4] D,8 | 
[V:1] G8 | 
[V:2] B4c2d2- | 
[V:3] G8- | 
[V:4] G,,8- | 
[V:1] z4z2d2- | 
[V:2] dcBAB4 | 
[V:3] G8 | 
[V:4] G,,8 | 
[V:1] d2c3BAG | 
[V:2] A4B2c2- | 
[V:3] z8 | 
[V:4] z8 | 
[V:1] A2G4^F2 | 
[V:2] cBAGA4 | 
[V:3] z8 | 
[V:4] z8 | 
[V:1] G8 | 
[V:2] G8- | 
[V:3] B4c2d2- | 
[V:4] G,,8- | 
[V:1] z4D4 | 
[V:2] G8 | 
[V:3] dcBAB4 | 
[V:4] G,,8 | 
[V:1] C4F4 | 
[V:2] E4C4 | 
[V:3] A4B2c2- | 
[V:4] A,,8- | 
[V:1] E8 | 
[V:2] c8- | 
[V:3] cBAGA4 | 
[V:4] A,,8 | 
[V:1] E4F2G2- | 
[V:2] c8- | 
[V:3] G8- | 
[V:4] C,8- | 
[V:1] GFEDE4 | 
[V:2] c8 | 
[V:3] G8 | 
[V:4] C,8 | 
[V:1] D4E2F2- | 
[V:2] z8 | 
[V:3] z8 | 
[V:4] B,,4C,2D,2- | 
[V:1] FEDCD4 | 
[V:2] z8 | 
[V:3] z8 | 
[V:4] D,C,B,,A,,B,,4 | 
[V:1] C2E2F2G2- | 
[V:2] z4z4 | 
[V:3] z8 | 
[V:4] C,4D,2E,2- | 
[V:1] GFEDE4 | 
[V:2] c8 | 
[V:3] G8 | 
[V:4] E,D,C,B,,C,4 | 
[V:1] D4z2A2- | 
[V:2] A2d3ef2- | 
[V:3] F8 | 
[V:4] D,8- | 
[V:1] AGFED4 | 
[V:2] fedcB4 | 
[V:3] z8 | 
[V:4] D,8 | 
[V:1] E6G2- | 
[V:2] z8 | 
[V:3] z2c3de2- | 
[V:4] C,8- | 
[V:1] GFEDC4 | 
[V:2] z8 | 
[V:3] edcBA4 | 
[V:4] C,8 | 
[V:1] z8 | 
[V:2] z2B3cd2- | 
[V:3] z8 | 
[V:4] B,,8- | 
[V:1] z8 | 
[V:2] dcBAG4 | 
[V:3] z8 | 
[V:4] B,,8 | 
[V:1] c8- | 
[V:2] z8 | 
[V:3] z2A3Bc2- | 
[V:4] A,,8- | 
[V:1] c8 | 
[V:2] z8 | 
[V:3] cBAG^F3E | 
[V:4] A,,8 | 
[V:1] B8- | 
[V:2] z2d3cBA | 
[V:3] G4z2d2- | 
[V:4] G,,8- | 
[V:1] B8- | 
[V:2] G3F/E/D2G2- | 
[V:3] dcBAG3F/E/ | 
[V:4] G,,8- | 
[V:1] B8- | 
[V:2] GAB2G2B2- | 
[V:3] D2GAB2G2 | 
[V:4] G,,8- | 
[V:1] B8- | 
[V:2] Bcd2B2d2- | 
[V:3] B3cd2B2 | 
[V:4] G,,8- | 
[V:1] B8- | 
[V:2] dcBAd4 | 
[V:3] d3cBAB2- | 
[V:4] G,,8- | 
[V:1] B8 | 
[V:2] d8 | 
[V:3] BAGFG4 | 
[V:4] G,,8 | 
[V:1] A8 ||  
[V:2] c8 ||  
[V:3] E8 ||  
[V:4] A,,8 ||  
[V:1]  [K:C] [K:clef=treble][M:2/1]z8 | 
[V:2]  [K:C] [K:clef=treble-8][M:2/1]d8 | 
[V:3]  [K:C] [K:clef=treble-8][M:2/1]z8 | 
[V:4]  [K:C] [K:clef=bass][M:2/1]z8 | 
[V:1] z8 | 
[V:2] c8 | 
[V:3] z8 | 
[V:4] E,8 | 
[V:1] A8 | 
[V:2] d4f4 | 
[V:3] z8 | 
[V:4] D,8 | 
[V:1] G8 | 
[V:2] e6dc | 
[V:3] z8 | 
[V:4] E,8 | 
[V:1] A6B2 | 
[V:2] c2f4ed | 
[V:3] A8 | 
[V:4] F,4D,4 | 
[V:1] c2B4AG | 
[V:2] c2d3^c^cB | 
[V:3] G8 | 
[V:4] E,8 | 
[V:1] F6G2 | 
[V:2] d8- | 
[V:3] A8 | 
[V:4] D,8- | 
[V:1] A2A4GF | 
[V:2] d8 | 
[V:3] G8 | 
[V:4] D,8 | 
[V:1] E8 | 
[V:2] G8- | 
[V:3] c8- | 
[V:4] C,8- | 
[V:1] z4E4 | 
[V:2] G8 | 
[V:3] c8 | 
[V:4] C,8 | 
[V:1] F6A2- | 
[V:2] F4f4- | 
[V:3] c8- | 
[V:4] F,8- | 
[V:1] ABc2A2c2- | 
[V:2] f2e2f4 | 
[V:3] c8 | 
[V:4] F,8 | 
[V:1] c2BAG4 | 
[V:2] e8 | 
[V:3] c6B2 | 
[V:4] C,8 | 
[V:1] F4G4- | 
[V:2] d4c4 | 
[V:3] A4G4 | 
[V:4] D,4E,4 | 
[V:1] G2^FEF4 | 
[V:2] d8 | 
[V:3] A8 | 
[V:4] D,8 | 
[V:1] G4z2G2 | 
[V:2] d6e2- | 
[V:3] G8 | 
[V:4] G,,6C,2- | 
[V:1] c4B4 | 
[V:2] e2f2gfed | 
[V:3] z4G4 | 
[V:4] C,2D,2E,4 | 
[V:1] A4z2A2 | 
[V:2] c6f2- | 
[V:3] A8- | 
[V:4] A,,6D,2- | 
[V:1] d4c4 | 
[V:2] f2g2a2gf | 
[V:3] A8 | 
[V:4] D,2E,2F,4 | 
[V:1] c3BG2A2- | 
[V:2] e6f2- | 
[V:3] c8 | 
[V:4] C,6F,2- | 
[V:1] AGG4^F2 | 
[V:2] f2edc4 | 
[V:3] c8 | 
[V:4] F,2G,2A,4 | 
[V:1] G4d4 | 
[V:2] z2d3eg2- | 
[V:3] B8 | 
[V:4] G,8 | 
[V:1] c4A4 | 
[V:2] g2fef4 | 
[V:3] c8 | 
[V:4] A,8 | 
[V:1] B4A4 | 
[V:2] g4f4 | 
[V:3] d8- | 
[V:4] G,4D,4 | 
[V:1] B2d4B2- | 
[V:2] g4f2g2- | 
[V:3] d8- | 
[V:4] G,2B,4G,2- | 
[V:1] Bcd3cA2- | 
[V:2] g2f3ga2- | 
[V:3] d8 | 
[V:4] G,A,B,3A,F,2- | 
[V:1] ABc2A2c2- | 
[V:2] age2f2e2- | 
[V:3] c8- | 
[V:4] F,G,A,2F,2A,2- | 
[V:1] cBG3AB2 | 
[V:2] efg3fd2 | 
[V:3] c4B4- | 
[V:4] A,G,E,3F,G,2 | 
[V:1] G2B3AF2- | 
[V:2] e2d3ef2- | 
[V:3] B8 | 
[V:4] E,2G,3F,D,2- | 
[V:1] FGA2F2A2- | 
[V:2] fec2d2c2- | 
[V:3] A8- | 
[V:4] D,E,F,2D,2F,2- | 
[V:1] AGE3FG2 | 
[V:2] cde3dB2 | 
[V:3] A4G4- | 
[V:4] F,E,C,3D,E,2 | 
[V:1] E3FG2E2 | 
[V:2] c2B4c2- | 
[V:3] G8 | 
[V:4] C,2E,4C,2- | 
[V:1] G6E2- | 
[V:2] c2B4c2 | 
[V:3] G8- | 
[V:4] C,D,E,4C,2- | 
[V:1] E2DCB,4 | 
[V:2] g2f2e4 | 
[V:3] G8 | 
[V:4] C,2D,2E,4 | 
[V:1] A,8- | 
[V:2] c8 | 
[V:3] A8 | 
[V:4] A,,4A,,4 | 
[V:1] A,8- | 
[V:2] d8- | 
[V:3] F8- | 
[V:4] D,8- | 
[V:1] A,8- | 
[V:2] d8 | 
[V:3] F8 | 
[V:4] D,8 | 
[V:1] A,8 |]  
[V:2] c8 |]  
[V:3] E8 |]  
[V:4] A,,8 |]  
